home-sound-in-outline.svg

<svg  viewBox="0 0 24 24" fill="currentColor"><path  d="M6.58045 2C6.50974 4.6163 4.52984 6.59619 1.98425 6.59619V8.01041C5.44908 8.08112 8.13608 5.39411 7.99466 2H6.58045Z M1.98425 3.62635V5.04056C3.75202 4.96985 5.02481 3.69706 5.02481 2H3.6106C3.46918 2.84853 2.83278 3.48492 1.98425 3.62635Z M22.0157 6.59619C19.4702 6.59619 17.4903 4.6163 17.4195 2H16.0053C15.8639 5.39411 18.5509 8.08112 22.0157 8.01041V6.59619Z M22.0157 5.04056V3.62635C21.1672 3.48492 20.5308 2.84853 20.3894 2H18.9752C18.9752 3.69706 20.248 4.96985 22.0157 5.04056Z M19 20V12H22L12 3L2 12H5V20H19ZM12 5.7L17 10.2V18H7V10.2L12 5.7Z"/></svg>

<svg fill="currentColor" viewBox="0 0 24 24"><path d="M6.58 2c-.07 2.616-2.05 4.596-4.596 4.596V8.01C5.45 8.081 8.136 5.394 7.994 2zM1.984 3.626v1.415C3.752 4.97 5.024 3.697 5.024 2H3.612a1.95 1.95 0 0 1-1.627 1.626m20.032 2.97c-2.546 0-4.526-1.98-4.596-4.596h-1.415c-.141 3.394 2.546 6.081 6.01 6.01zm0-1.555V3.626A1.95 1.95 0 0 1 20.389 2h-1.414c0 1.697 1.273 2.97 3.04 3.04M19 20v-8h3L12 3 2 12h3v8zM12 5.7l5 4.5V18H7v-7.8z"/></svg>
